!! 00000] TT[00
!! NN
!!!OTL: Ge zhong lian ou zai tang bian
!!!ARE: Asia, China,ÿGuangdong, kejia
!! Ethnic Group: Han, Kejia
!! MM
!!!SCT: C1286
!!!YEM: Copyright 1995, estate of Helmut Schaffrath.
**kern
*ICvox
*Ivox
!! Mixed meters:  3/4; 4/4
*M3/4
*k[]
*C:
{8ee
4e
4d
8e
=1
4a
4c
4d
=2
*M4/4
4d
16c
16d
16c
16A
8A
8A
4A}
=3
{8c
8d
16c
16d
16c
16a
24c
24d
24c
8A
=4
2c
2a
=5
4A
4A
8c
16A
16c
4d}
=6
*M3/4
{8e
8e
4d
4A
=7
8A
8c
8d
8c
4A
=8
8A
8A
4d
4d
=9
16c
16d
16c
16A
4c
4A
4a}
==
!!!AGN: Shange
!! Enthaelt einige Verzierungsnoten.
!!!ONB: ESAC (Essen Associative Code) Database: CHINA
!!!AMT: irregular
!!!AIN: vox
!!!EED: Helmut Schaffrath
!!!EEV: 1.0
*-
